!!! OTL: Berkowitz625
!!! Chapter: 1
!!! Section: V
!!! Page: 159
!!! Mode: 
!!! Encoder: AR
**kern
*staff1
=1-
!!pagebreak:original
*clefG2
*k[]
*C:
*M4/4
4.f/
8f/
4d/
4dd-\
=2
4.b-\
8f/
4dn/
4dd-\
=3
4.b-\
8b-\
4ddn\
4e/
=4
4.d/
8b-\
4dd\
4e/
=5
4d-/
4b-\
2g/
=6
4d-/
4b-\
2cc\
=7
!!linebreak:original
4d-/
4b-\
4g/
4a/
=8
4cc#\
4bn\
2f/
=9
4.e/
8e/
4cn/
4b\
=10
4.g#/
8e/
4c/
4b\
=11
4g#/
4f/
4Gn/
4f/
=12
1a
==
*-
